X:1
T:Our Land for Christ
T:Charles Hutchinson Gabriel (1856-1932)
T:Our Land for Christ
T:Public Domain
T:Public Domain
C:Charles Hutchinson Gabriel (1856-1932)
Z:Public Domain
%%score ( 1 2 ) ( 3 4 )
L:1/8
M:4/4
K:G
V:1 treble 
V:2 treble 
V:3 bass 
V:4 bass 
V:1
 [B,D]2 | [B,G]2 [B,G]2 [DG]2 [DA]2 | [DB]6 G2 | [Fc]2 [GB]2 [DA]2 [^CG]2 | [DA]6 [DA]2 | %5
w: 1.~“Our|land for Christ” we|sing; Our|to Him we bring,|And trust|
w: 2.~“Our|land for Christ” we|sing; A-|earth’s fol- lies fling,|And seek|
w: 3.~“Our|land for Christ” we|sing; Christ,|phet, priest, and king,|Whom saints|
w: 4.~“Our|land for Christ” we|sing; Our|to Him we bring,|With one|
 ([^CA]2 [EG]2) ([DF]2 [CE]2) | D6 D2 | [DA]2 [D^G]2 [DA]2 [DB]2 | [Dc]6 [DA]2 | %9
w: His * Word; *|With His|in view, Each Christ-|ian grace|
w: His * love: *|Ours be|ly prize, Un- seen|by mor-|
w: a- * dore; *|Each day|ty done, Some Christ-|ian work|
w: ac- * cord; *|Sin- ners|set free, His wond-|rous grace|
 [DB]2 [DA]2 [DB]2 [Fc]2 | [Gd]6 [Gd]2 | [Ge]2 [Gd]2 [Fc]2 [GB]2 | (A2 [^CG]2) ([DF]2 [A,E]2) | %13
w: re- new, And make|en- dea-|vor true For Christ|our * Lord. *|
w: tal eyes, In man-|sions in|the skies, With Him|a- * bove. *|
w: be- gun, Some soul|to Je-|sus won, We ask|no * more. *|
w: shall see, And through|e- ter-|ni- ty Wor- ship|the * Lord. *|
 (D2 [Ec]2) ([DB]2 [FA]2) | G6 ||"^Refrain" D2 | (A2 A2) (^G2 G2) | (A2 A2 F2) [Ad]2 | %18
w: |||||
w: land * for *|we|ly|Our * hearts *|to * * Him|
w: |||||
w: |||||
 (G2 G2) (G2 G2) | (G2 G2 G2) [Gd]2 | [Ge]2 [Gd]2 [Fc]2 [GB]2 | A2 [^CG]2 [DF]2 [A,E]2 | %22
w: ||||
w: bring, * And *|dea- * * vor|and true For Christ,|our Lord and King.|
w: ||||
w: ||||
 D2 [Ec]2 [DB]2 [FA]2 | G6 |] %24
w: ||
w: ||
w: ||
w: ||
V:2
 x2 | x8 | x6 G2 | x8 | x8 | x8 | D6 D2 | x8 | x8 | x8 | x8 | x8 | A2 x6 | D2 x6 | G6 || D2 | %16
w: ||hearts||||dear cross||||||||||
w: ||way||||a heav’n-||||||Our|Christ|glad-|sing,|
w: ||pro-||||some du-||||||||||
w: ||all||||from set||||||||||
 c4 B4 | c6 x2 | d4 ^c4 | d6 x2 | x8 | A2 x6 | D2 x6 | G6 |] %24
w: ||||||||
w: to Him,|we|make en-|firm|||||
w: ||||||||
w: ||||||||
V:3
 G,2 | G,2 [G,,G,]2 [B,,G,]2 [D,F,]2 | G,6 [B,D]2 | [A,D]2 [G,D]2 [F,D]2 [E,A,]2 | %4
w: ~|~ ~ ~ ~|~ ~|~ ~ ~ ~|
 [D,F,]6 [D,F,]2 | (E,2 A,2) (A,2 G,2) | [D,F,]6 [D,F,]2 | [D,C]2 [D,B,]2 [D,C]2 [D,^G,]2 | %8
w: ~ ~|~ * ~ *|~ ~|~ ~ ~ ~|
 [D,A,]6 [F,A,]2 | G,2 [D,F,]2 F,2 [G,C]2 | [B,D]6 [B,D]2 | C2 [B,D]2 [A,D]2 [G,D]2 | %12
w: ~ ~|~ ~ ~ ~|~ ~|~ ~ ~ Our|
 ([F,D]2 [E,A,]2) ([D,A,]2 [C,F,]2) | (B,,2 A,,2) (G,2 C2) | [G,,B,]6 || [D,D]2 | %16
w: for * Christ, *|Our * hearts *|||
 [D,D]2 [D,D]2 [D,D]2 [D,D]2 | [D,D]2 [F,D]2 [A,D]2 [F,C]2 | [G,B,]2 [G,B,]2 [G,^A,]2 [G,A,]2 | %19
w: |||
 [G,B,]2 [B,D]2 [B,D]2 [B,D]2 | C2 [B,D]2 [A,D]2 [G,D]2 | [F,D]2 [E,A,]2 [D,A,]2 [C,F,]2 | %22
w: |||
 [B,,G,]2 [A,,G,]2 [D,G,]2 [D,C]2 | [G,,B,]6 |] %24
w: ||
V:4
 G,2 | G,2 x6 | G,6 x2 | x8 | x8 | A,,4 A,,4 | x8 | x8 | x8 | G,2 x6 | x8 | C2 x6 | x8 | G,4 D,4 | %14
w: ~|~|~|||~ ~||||~||land||we bring|
 x6 || x2 | x8 | x8 | x8 | x8 | C2 x6 | x8 | x8 | x6 |] %24
w: ||||||||||

